src/topics/icons/fastly.svg

<svg height="199" preserveAspectRatio="xMidYMid" viewBox="0 0 512 199" width="512" xmlns="http://www.w3.org/2000/svg"><path d="m348.443832 20.3483124v133.5876326h40.126829v-20.410813h-13.258224v-133.525132l-26.871778.00317258zm-348.443832 113.1768196h13.6405203v-64.4500701h-13.6405203v-17.7245863l13.6405203-2.2433334v-17.9422255c0-21.73314489 4.7303212-31.16459944 32.4460057-31.16459944 5.9860295 0 13.081194.8838816 19.2931113 2.00285161l-3.6820997 21.84704063c-4.2071622-.6665597-6.2934528-.784897-8.953029-.784897-9.7645758 0-12.2331626.9743002-12.2331626 10.5148916v15.5269381h20.274074v19.9679197h-20.274074v64.4500701h13.4983886v20.40764l-54.0097346.005711zm334.776345-6.450178c-4.203673.886737-7.880696.780138-10.539321.845493-11.053279.271891-10.098331-3.361986-10.098331-13.785507v-45.0598781h21.04057v-19.9679197h-21.04057v-49.1071422h-26.872095v119.70663c0 23.502812 5.800433 34.229315 31.07894 34.229315 5.986664 0 14.213171-1.540606 20.425089-2.87087zm-81.052197-58.0363768v-3.5748664c-8.12911-1.482548-16.20143-1.5041216-20.580546-1.5041216-12.504736 0-14.029162 6.6313329-14.029162 10.2258693 0 5.0853332 1.735086 7.8350109 15.282015 10.7969343 19.801994 4.4454232 39.68933 9.0837394 39.68933 33.6376282 0 23.285807-11.984115 35.315924-37.209956 35.315924-16.880362 0-33.259139-3.623724-45.755943-6.795038v-20.065953h20.347995l-.011739 3.564714c8.756329 1.691304 17.937467 1.522206 22.730605 1.522206 13.338174 0 15.496164-7.171307 15.496164-10.9838 0-5.291234-3.824865-7.832473-16.328015-10.367684-23.555159-4.024738-42.249287-12.0669187-42.249287-35.994222 0-22.6478005 15.147497-31.5323018 40.373656-31.5323018 17.089753 0 30.084335 2.6503758 42.588119 5.823276v19.931435zm-136.12094 57.9754638v-3.158624h-3.21922v3.14974c-14.4212931-.840734-25.9568047-12.427324-26.7093413-26.872094h3.1998671v-3.2192203h-3.1830524c.8550111-14.3445165 12.3429336-25.8213353 26.6925266-26.6579454v3.1662378h3.21922v-3.175121c14.144961.7560265 25.538341 11.8511835 26.76962 25.8647996v.9235389h-3.225248v3.2189024h3.2262l.000634.881661c-1.225251 14.020279-12.621804 25.121781-26.771206 25.878125zm53.650281.060913-.017449-83.6165957h-26.870192v7.841356c-5.534253-3.3204253-11.698899-5.6944691-18.269636-6.9114719h.151967v-9.2788534h3.278547v-6.8242258h-27.055787v6.8242258h3.277913v9.2788534h.186548c-25.6998258 4.7312729-45.1756779 27.2356727-45.1756779 54.3035158 0 30.5050198 24.7290149 55.2340348 55.2337169 55.2340348 10.411148 0 20.147171-2.884513 28.459338-7.891801l4.840727 7.901953h28.382562v-26.860991zm285.32466-77.9678118h55.421851v19.948567h-13.248706l-33.987881 83.6194508c-9.73983 23.489487-25.742338 45.597949-50.107775 45.597949-5.993009 0-13.968883-.664022-19.498695-1.993017l2.430199-24.387962c3.55012.663704 8.197954 1.100569 10.63767 1.100569 11.300741 0 24.045006-7.001891 28.032943-19.192541l-34.438388-84.7444488h-13.248706v-19.948567h55.450404v19.948567h-13.245533l19.511385 48.0008628 19.508212-48.0008628h-13.21698zm-326.48131 37.5690926-2.045047-2.0453642-10.384498 9.0501101c-.524111-.1881342-1.084706-.2953675-1.670682-.2953675-2.802343 0-5.07074 2.335021-5.07074 5.212871 0 2.8810228 2.268397 5.2157268 5.07074 5.2157268 2.801073 0 5.074863-2.334704 5.074863-5.2157268 0-.5463188-.082804-1.0729675-.234771-1.5682077z" fill="#d52f2f"/></svg>

<?xml version="1.0" encoding="UTF-8" standalone="no"?>
<svg width="512px" height="199px" viewBox="0 0 512 199" version="1.1" xmlns="http://www.w3.org/2000/svg" xmlns:xlink="http://www.w3.org/1999/xlink" preserveAspectRatio="xMidYMid">
    <g>
        <path d="M348.443832,20.3483124 L348.443832,153.935945 L388.570661,153.935945 L388.570661,133.525132 L375.312437,133.525132 L375.312437,0 L348.440659,0.00317258293 L348.443832,20.3483124 Z M0,133.525132 L13.6405203,133.525132 L13.6405203,69.0750619 L0,69.0750619 L0,51.3504756 L13.6405203,49.1071422 L13.6405203,31.1649167 C13.6405203,9.43177181 18.3708415,0.000317258293 46.086526,0.000317258293 C52.0725555,0.000317258293 59.16772,0.884198864 65.3796373,2.00316887 L61.6975376,23.8502095 C57.4903754,23.1836498 55.4040848,23.0653125 52.7445086,23.0653125 C42.9799328,23.0653125 40.511346,24.0396127 40.511346,33.5802041 L40.511346,49.1071422 L60.78542,49.1071422 L60.78542,69.0750619 L40.511346,69.0750619 L40.511346,133.525132 L54.0097346,133.525132 L54.0097346,153.932772 L0,153.938483 L0,133.525132 Z M334.776345,127.074954 C330.572672,127.961691 326.895649,127.855092 324.237024,127.920447 C313.183745,128.192338 314.138693,124.558461 314.138693,114.13494 L314.138693,69.0750619 L335.179263,69.0750619 L335.179263,49.1071422 L314.138693,49.1071422 L314.138693,0 L287.266598,0 L287.266598,119.70663 C287.266598,143.209442 293.067031,153.935945 318.345538,153.935945 C324.332202,153.935945 332.558709,152.395339 338.770627,151.065075 L334.776345,127.074954 Z M253.724148,69.0385772 L253.724148,65.4637108 C245.595038,63.9811628 237.522718,63.9595892 233.143602,63.9595892 C220.638866,63.9595892 219.11444,70.5909221 219.11444,74.1854585 C219.11444,79.2707917 220.849526,82.0204694 234.396455,84.9823928 C254.198449,89.427816 274.085785,94.0661322 274.085785,118.620021 C274.085785,141.905828 262.10167,153.935945 236.875829,153.935945 C219.995467,153.935945 203.61669,150.312221 191.119886,147.140907 L191.119886,127.074954 L211.467881,127.074954 L211.456142,130.639668 C220.212471,132.330972 229.393609,132.161874 234.186747,132.161874 C247.524921,132.161874 249.682911,124.990567 249.682911,121.178074 C249.682911,115.88684 245.858046,113.345601 233.354896,110.81039 C209.799737,106.785652 191.105609,98.7434713 191.105609,74.816168 C191.105609,52.1683675 206.253106,43.2838662 231.479265,43.2838662 C248.569018,43.2838662 261.5636,45.934242 274.067384,49.1071422 L274.067384,69.0385772 L253.724148,69.0385772 Z M117.603208,127.014041 L117.603208,123.855417 L114.383988,123.855417 L114.383988,127.005157 C99.9626949,126.164423 88.4271833,114.577833 87.6746467,100.133063 L90.8745138,100.133063 L90.8745138,96.9138427 L87.6914614,96.9138427 C88.5464725,82.5693262 100.034395,71.0925074 114.383988,70.2558973 L114.383988,73.4221351 L117.603208,73.4221351 L117.603208,70.2470141 C131.748169,71.0030406 143.141549,82.0981976 144.372828,96.1118137 L144.372828,97.0353526 L141.14758,97.0353526 L141.14758,100.254255 L144.37378,100.254255 L144.374414,101.135916 C143.149163,115.156195 131.75261,126.257697 117.603208,127.014041 Z M171.253489,127.074954 L171.23604,43.4583583 L144.365848,43.4583583 L144.365848,51.2997143 C138.831595,47.979289 132.666949,45.6052452 126.096212,44.3882424 L126.248179,44.3882424 L126.248179,35.109389 L129.526726,35.109389 L129.526726,28.2851632 L102.470939,28.2851632 L102.470939,35.109389 L105.748852,35.109389 L105.748852,44.3882424 L105.9354,44.3882424 C80.2355742,49.1195153 60.7597221,71.6239151 60.7597221,98.6917582 C60.7597221,129.196778 85.488737,153.925793 115.993439,153.925793 C126.404587,153.925793 136.14061,151.04128 144.452777,146.033992 L149.293504,153.935945 L177.676066,153.935945 L177.676066,127.074954 L171.253489,127.074954 Z M456.578149,49.1071422 L512,49.1071422 L512,69.0557092 L498.751294,69.0557092 L464.763413,152.67516 C455.023583,176.164647 439.021075,198.273109 414.655638,198.273109 C408.662629,198.273109 400.686755,197.609087 395.156943,196.280092 L397.587142,171.89213 C401.137262,172.555834 405.785096,172.992699 408.224812,172.992699 C419.525553,172.992699 432.269818,165.990808 436.257755,153.800158 L401.819367,69.0557092 L388.570661,69.0557092 L388.570661,49.1071422 L444.021065,49.1071422 L444.021065,69.0557092 L430.775532,69.0557092 L450.286917,117.056572 L469.795129,69.0557092 L456.578149,69.0557092 L456.578149,49.1071422 Z M130.096839,86.6762348 L128.051792,84.6308706 L117.667294,93.6809807 C117.143183,93.4928465 116.582588,93.3856132 115.996612,93.3856132 C113.194269,93.3856132 110.925872,95.7206342 110.925872,98.5984842 C110.925872,101.479507 113.194269,103.814211 115.996612,103.814211 C118.797685,103.814211 121.071475,101.479507 121.071475,98.5984842 C121.071475,98.0521654 120.988671,97.5255167 120.836704,97.0302765 L130.096839,86.6762348" fill="#D52F2F"></path>
    </g>
</svg>
